azure-icons/status-517-Unknown-Outline.svg

<svg xmlns="http://www.w3.org/2000/svg" width="16" height="16"><path fill="#7A7A7A" d="M8 15.4C3.92 15.4.6 12.081.6 8 .6 3.92 3.92.6 8 .6c4.081 0 7.4 3.32 7.4 7.4 0 4.081-3.319 7.4-7.4 7.4z"/><path fill="#FFF" d="M8 1.013a6.987 6.987 0 110 13.974A6.987 6.987 0 018 1.013M8 0C3.589 0 0 3.589 0 8s3.589 8 8 8 8-3.589 8-8-3.589-8-8-8z"/><path fill="#FFF" d="M10.329 5.935c0 .699-.373 1.351-1.071 1.956-.28.233-.513.42-.606.606-.093.14-.14.373-.14.606v.279H7.208v-.419c0-.606.233-1.118.745-1.537.326-.233.513-.466.606-.606s.186-.373.186-.606-.093-.372-.233-.512a.85.85 0 00-.652-.28c-.559 0-1.071.233-1.584.652v-1.49c.512-.326 1.118-.466 1.77-.466.699 0 1.304.186 1.677.512.42.28.606.746.606 1.305zm-1.553 5.233c0 .233-.093.466-.279.606s-.419.233-.652.233c-.279 0-.466-.093-.652-.233s-.279-.373-.279-.606.093-.466.279-.606a1.14 1.14 0 01.699-.233c.28 0 .512.093.652.233a.89.89 0 01.232.606z"/></svg>

<?xml version="1.0" encoding="utf-8"?>
<!-- Generator: Adobe Illustrator 22.1.0, SVG Export Plug-In . SVG Version: 6.00 Build 0)  -->
<svg version="1.1" id="Layer_1" xmlns="http://www.w3.org/2000/svg" xmlns:xlink="http://www.w3.org/1999/xlink" x="0px" y="0px"
	 width="16px" height="16px" viewBox="0 0 16 16" enable-background="new 0 0 16 16" xml:space="preserve">
<path fill="#7A7A7A" d="M8,15.4c-4.08,0-7.4-3.319-7.4-7.4c0-4.08,3.32-7.4,7.4-7.4c4.081,0,7.4,3.32,7.4,7.4
	C15.4,12.081,12.081,15.4,8,15.4z"/>
<path fill="#FFFFFF" d="M8,1.013c3.859,0,6.987,3.128,6.987,6.987S11.859,14.987,8,14.987S1.013,11.859,1.013,8S4.141,1.013,8,1.013
	 M8,0C3.589,0,0,3.589,0,8s3.589,8,8,8s8-3.589,8-8S12.411,0,8,0L8,0z"/>
<path fill="#FFFFFF" d="M10.329,5.935c0,0.699-0.373,1.351-1.071,1.956c-0.28,0.233-0.513,0.42-0.606,0.606
	c-0.093,0.14-0.14,0.373-0.14,0.606v0.279H7.208V8.963c0-0.606,0.233-1.118,0.745-1.537C8.279,7.193,8.466,6.96,8.559,6.82
	s0.186-0.373,0.186-0.606S8.652,5.842,8.512,5.702C8.346,5.518,8.108,5.416,7.86,5.422c-0.559,0-1.071,0.233-1.584,0.652v-1.49
	c0.512-0.326,1.118-0.466,1.77-0.466c0.699,0,1.304,0.186,1.677,0.512C10.143,4.91,10.329,5.376,10.329,5.935z M8.776,11.168
	c0,0.233-0.093,0.466-0.279,0.606s-0.419,0.233-0.652,0.233c-0.279,0-0.466-0.093-0.652-0.233c-0.186-0.14-0.279-0.373-0.279-0.606
	s0.093-0.466,0.279-0.606c0.185-0.14,0.419-0.233,0.699-0.233c0.28,0,0.512,0.093,0.652,0.233
	C8.683,10.702,8.776,10.935,8.776,11.168z"/>
</svg>
